X: 15731
T: Golden Vanity, The
R: hornpipe
M: 4/4
K: Gmajor
D|GGGG G2DD|GABc d2 z2|g2GG GABG|A2D2 D2D2|
c2c2 B2B2|ABAG F2 DD|G2 BG A2F2|G6 FG||
AAAA A2F2|AB^cA d2 z2|d2 FF EFGE|A2A2 D2D2|
c2c2 B2BB|ABAG F2 DD|G2 BG A2F2|G6 FG||

